assets/Christmas tree/Flat/christmas_tree_flat.svg

<svg width="32" height="32" viewBox="0 0 32 32" fill="none" xmlns="http://www.w3.org/2000/svg">
<path d="M19.1573 29.9875H12.8456C12.3098 29.9875 11.9026 29.5175 12.0204 29.0275L12.5348 26.8975L15.9094 25.8393L19.4681 26.8975L19.9824 29.0275C20.0896 29.5175 19.6931 29.9875 19.1573 29.9875Z" fill="#6D4534"/>
<path d="M14.86 7.19L12.18 11.9818C11.68 12.8719 12.3 13.9999 13.3 13.9999L13.9079 13.9999C11.7467 13.9999 10 15.5917 10 17.5611C10 18.3615 10.7105 18.9999 11.5789 18.9999H11.7231C9.11588 18.9999 7 21.2268 7 23.9709C7 25.649 8.29359 26.9999 9.87798 26.9999H22.122C23.7164 26.9999 25 25.6385 25 23.9709C25.01 21.2268 22.8941 18.9999 20.2769 18.9999H20.4211C21.2994 18.9999 22 18.3525 22 17.5611C22 15.6007 20.2533 13.9999 18.0921 13.9999L18.65 13.9999C19.65 13.9999 20.27 12.8822 19.77 11.9818L17.09 7.19C16.6 6.29995 15.36 6.29995 14.86 7.19Z" fill="#44911B"/>
<path d="M18.9819 18.3056C19.6943 18.3056 20.2719 17.728 20.2719 17.0156C20.2719 16.3031 19.6943 15.7256 18.9819 15.7256C18.2694 15.7256 17.6919 16.3031 17.6919 17.0156C17.6919 17.728 18.2694 18.3056 18.9819 18.3056Z" fill="#F8312F"/>
<path d="M10.9766 25.3874C11.689 25.3874 12.2666 24.8099 12.2666 24.0974C12.2666 23.385 11.689 22.8074 10.9766 22.8074C10.2641 22.8074 9.68658 23.385 9.68658 24.0974C9.68658 24.8099 10.2641 25.3874 10.9766 25.3874Z" fill="#F8312F"/>
<path d="M23.29 24.0281C23.29 24.7405 22.7124 25.3181 22 25.3181C21.2875 25.3181 20.71 24.7405 20.71 24.0281C20.71 23.3156 21.2875 22.7381 22 22.7381C22.7124 22.7381 23.29 23.3156 23.29 24.0281Z" fill="#F8312F"/>
<path d="M18.2885 12.0161C18.2885 12.7285 17.7109 13.3061 16.9985 13.3061C16.286 13.3061 15.7085 12.7285 15.7085 12.0161C15.7085 11.3036 16.286 10.7261 16.9985 10.7261C17.7109 10.7261 18.2885 11.3036 18.2885 12.0161Z" fill="#FCD53F"/>
<path d="M13.9763 17.2901C14.6887 17.2901 15.2663 16.7125 15.2663 16.0001C15.2663 15.2876 14.6887 14.7101 13.9763 14.7101C13.2638 14.7101 12.6863 15.2876 12.6863 16.0001C12.6863 16.7125 13.2638 17.2901 13.9763 17.2901Z" fill="#FCD53F"/>
<path d="M16 23.2535C16.7125 23.2535 17.29 22.676 17.29 21.9635C17.29 21.2511 16.7125 20.6735 16 20.6735C15.2876 20.6735 14.71 21.2511 14.71 21.9635C14.71 22.676 15.2876 23.2535 16 23.2535Z" fill="#FCD53F"/>
<path d="M17.0045 3.08977L17.7004 3.19609C18.0581 3.24442 18.1934 3.67936 17.9421 3.93066L17.4395 4.42359C17.3332 4.52025 17.2945 4.66523 17.3138 4.80054L17.4298 5.49645C17.4878 5.8444 17.1205 6.11503 16.8016 5.95072L16.183 5.6221C16.0573 5.55444 15.9027 5.55444 15.777 5.6221L15.1584 5.95072C14.8395 6.11503 14.4722 5.8444 14.5302 5.49645L14.6462 4.80054C14.6655 4.66523 14.6269 4.52025 14.5205 4.42359L14.0179 3.93066C13.7666 3.67936 13.9019 3.24442 14.2596 3.19609L14.9555 3.09943C15.1005 3.0801 15.2164 2.99312 15.2841 2.86747L15.5934 2.23922C15.748 1.92026 16.212 1.92026 16.3666 2.23922L16.6759 2.86747C16.7436 2.97379 16.8596 3.07044 17.0045 3.08977Z" fill="#F9C23C"/>
</svg>

<svg xmlns="http://www.w3.org/2000/svg" width="32" height="32" fill="none"><path fill="#6D4534" d="M19.157 29.988h-6.311c-.536 0-.943-.47-.826-.96l.515-2.13 3.374-1.059 3.56 1.059.513 2.13c.108.49-.289.96-.825.96Z"/><path fill="#44911B" d="m14.86 7.19-2.68 4.792c-.5.89.12 2.018 1.12 2.018h.608C11.747 14 10 15.592 10 17.56c0 .8.71 1.439 1.579 1.439h.144C9.116 19 7 21.227 7 23.97 7 25.65 8.294 27 9.878 27h12.244C23.716 27 25 25.639 25 23.97c.01-2.743-2.106-4.97-4.723-4.97h.144C21.3 19 22 18.352 22 17.56 22 15.601 20.253 14 18.092 14h.558c1 0 1.62-1.118 1.12-2.018L17.09 7.19c-.49-.89-1.73-.89-2.23 0Z"/><path fill="#F8312F" d="M18.982 18.306a1.29 1.29 0 1 0 0-2.58 1.29 1.29 0 0 0 0 2.58ZM10.977 25.387a1.29 1.29 0 1 0 0-2.58 1.29 1.29 0 0 0 0 2.58ZM23.29 24.028a1.29 1.29 0 1 1-2.58 0 1.29 1.29 0 0 1 2.58 0Z"/><path fill="#FCD53F" d="M18.288 12.016a1.29 1.29 0 1 1-2.58 0 1.29 1.29 0 0 1 2.58 0ZM13.976 17.29a1.29 1.29 0 1 0 0-2.58 1.29 1.29 0 0 0 0 2.58ZM16 23.253a1.29 1.29 0 1 0 0-2.58 1.29 1.29 0 0 0 0 2.58Z"/><path fill="#F9C23C" d="m17.005 3.09.695.106a.43.43 0 0 1 .242.735l-.503.493a.425.425 0 0 0-.125.377l.116.695a.434.434 0 0 1-.628.455l-.619-.329a.431.431 0 0 0-.406 0l-.619.329a.434.434 0 0 1-.628-.455l.116-.695a.425.425 0 0 0-.126-.377l-.502-.493a.43.43 0 0 1 .242-.735l.696-.097a.435.435 0 0 0 .328-.232l.31-.628a.432.432 0 0 1 .773 0l.309.628a.476.476 0 0 0 .329.223Z"/></svg>
